dist/assets/img/benefits/home-lock.svg

<svg viewBox="0 0 48 48" fill="none" xmlns="http://www.w3.org/2000/svg">
    <path
      d="M36.2345 12.1954C37.9441 13.4688 39.1549 14.372 40.0567 15.1637C40.9418 15.9409 41.4446 16.5398 41.7767 17.1639C42.4597 18.4476 42.5 19.9158 42.5 23.9023V26.8851C42.5 30.9684 42.4957 33.855 42.1521 36.0421C41.8195 38.1591 41.1979 39.4108 40.0958 40.3539C38.96 41.3258 37.3963 41.898 34.8013 42.1965C32.184 42.4977 28.7505 42.5 24 42.5C19.2495 42.5 15.816 42.4977 13.1987 42.1965C10.6037 41.898 9.03997 41.3258 7.9042 40.3539C6.80214 39.4108 6.18054 38.1591 5.84794 36.0421C5.50432 33.855 5.5 30.9684 5.5 26.885L5.5 23.9023C5.5 19.9158 5.54027 18.4476 6.22331 17.1639C6.55544 16.5398 7.05816 15.9409 7.9433 15.1637C8.84509 14.372 10.0559 13.4688 11.7655 12.1954C14.9238 9.84305 17.1881 8.1597 19.1245 7.04937C21.0221 5.96133 22.4796 5.5 24 5.5C25.5204 5.5 26.9779 5.96133 28.8755 7.04937C30.8119 8.1597 33.0762 9.84305 36.2345 12.1954Z"
      stroke="currentColor" stroke-width="3" />
    <rect x="15.5" y="23.9602" width="17" height="10.29" rx="2.5" stroke="currentColor" stroke-width="3" />
    <path
      d="M29.9717 23.1886L29.9717 21.7219C29.9717 18.4237 27.2979 15.7499 23.9996 15.7499V15.7499C20.7013 15.7499 18.0276 18.4237 18.0276 21.7219L18.0276 23.1886"
      stroke="currentColor" stroke-width="3" stroke-linecap="round" />
</svg>

<svg viewBox="0 0 48 48" fill="none" xmlns="http://www.w3.org/2000/svg"><path d="M36.234 12.195c1.71 1.274 2.92 2.177 3.823 2.969.885.777 1.388 1.376 1.72 2 .683 1.284.723 2.752.723 6.738v2.983c0 4.083-.004 6.97-.348 9.157-.333 2.117-.954 3.369-2.056 4.312-1.136.972-2.7 1.544-5.295 1.843-2.617.3-6.05.303-10.801.303-4.75 0-8.184-.002-10.801-.303-2.595-.299-4.159-.871-5.295-1.843-1.102-.943-1.723-2.195-2.056-4.312-.344-2.187-.348-5.074-.348-9.157v-2.983c0-3.986.04-5.454.723-6.738.332-.624.835-1.223 1.72-2 .902-.792 2.113-1.695 3.822-2.969 3.159-2.352 5.423-4.035 7.36-5.146C21.021 5.961 22.48 5.5 24 5.5s2.978.461 4.875 1.55c1.937 1.11 4.201 2.793 7.36 5.145z" stroke="currentColor" stroke-width="3"/><rect x="15.5" y="23.96" width="17" height="10.29" rx="2.5" stroke="currentColor" stroke-width="3"/><path d="M29.972 23.189v-1.467A5.972 5.972 0 0024 15.75v0a5.972 5.972 0 00-5.972 5.972v1.467" stroke="currentColor" stroke-width="3" stroke-linecap="round"/></svg>
